src/assets/icons/beans-solid-white.svg

<svg width="38" height="38" viewBox="0 0 38 38" fill="none" xmlns="http://www.w3.org/2000/svg">
<g filter="url(#filter0_d_4_68)">
<g clip-path="url(#clip0_4_68)">
<path d="M9.38842 26.5504C8.03446 24.1621 8.95551 20.4168 11.7569 17.6151C14.9384 14.4341 19.3369 13.6759 21.5827 15.9214C21.585 15.9242 21.5878 15.9274 21.5912 15.9304C21.1418 17.2383 19.7102 20.0203 15.42 21.5246C11.4894 22.9031 9.9735 25.0955 9.38842 26.5504ZM20.2604 19.5906C19.2344 20.6175 17.776 21.6253 15.7102 22.3503C11.5176 23.8203 10.3463 26.2275 10.0194 27.3931C10.0352 27.409 10.048 27.4255 10.0629 27.4401C12.3084 29.6857 16.7075 28.9274 19.8882 25.7464C22.7187 22.9159 23.6292 19.1225 22.2142 16.7383C21.8736 17.5324 21.2812 18.5697 20.2604 19.5906ZM11.5846 9.24521C16.1138 9.64211 18.564 7.69641 19.5119 6.69018C19.5103 6.68619 19.5091 6.68168 19.5079 6.67806C18.387 3.70713 14.0663 2.586 9.85742 4.17405C6.15073 5.57275 3.76806 8.60593 4.0179 11.3398C5.15056 10.2555 7.43511 8.88224 11.5846 9.24521ZM13.9169 14.9334C17.6624 13.5206 20.0541 10.4387 19.7471 7.68311C19.1096 8.26655 18.1423 8.96808 16.7917 9.47782C15.4339 9.99006 13.6897 10.3081 11.5089 10.1171C7.08339 9.72906 5.02376 11.4401 4.24526 12.3682C4.25317 12.3889 4.25871 12.4091 4.26588 12.4285C5.38702 15.4002 9.70784 16.5218 13.9169 14.9334ZM27.0248 8.73791C29.7422 5.09208 29.3734 1.98481 29.015 0.649699C29.0109 0.649256 29.0068 0.647703 29.003 0.646816C25.8859 0.039928 22.6621 3.12782 21.8023 7.54314C21.0451 11.4328 22.3749 15.0529 24.8322 16.2767C24.5046 14.7432 24.5365 12.0782 27.0248 8.73791ZM29.9836 0.971332C30.1453 1.82059 30.2341 3.01211 29.9582 4.42863C29.6811 5.85357 29.0348 7.50469 27.7271 9.26029C25.0722 12.8223 25.446 15.4731 25.8269 16.623C25.8486 16.6275 25.869 16.6331 25.8891 16.6375C29.0065 17.2444 32.2299 14.157 33.0896 9.74126C33.8552 5.81187 32.4892 2.15716 29.9836 0.971332Z" fill="white"/>
</g>
</g>
<defs>
<filter id="filter0_d_4_68" x="0" y="0" width="37.302" height="37.302" filterUnits="userSpaceOnUse" color-interpolation-filters="sRGB">
<feFlood flood-opacity="0" result="BackgroundImageFix"/>
<feColorMatrix in="SourceAlpha" type="matrix" values="0 0 0 0 0 0 0 0 0 0 0 0 0 0 0 0 0 0 127 0" result="hardAlpha"/>
<feOffset dy="4"/>
<feGaussianBlur stdDeviation="2"/>
<feColorMatrix type="matrix" values="0 0 0 0 0 0 0 0 0 0 0 0 0 0 0 0 0 0 0.25 0"/>
<feBlend mode="normal" in2="BackgroundImageFix" result="effect1_dropShadow_4_68"/>
<feBlend mode="normal" in="SourceGraphic" in2="effect1_dropShadow_4_68" result="shape"/>
</filter>
<clipPath id="clip0_4_68">
<rect width="29.302" height="29.302" fill="white" transform="translate(4)"/>
</clipPath>
</defs>
</svg>

<svg width="38" height="38" fill="none" xmlns="http://www.w3.org/2000/svg"><g filter="url(#a)"><g clip-path="url(#b)"><path d="M9.388 26.55c-1.354-2.388-.432-6.133 2.369-8.935 3.181-3.18 7.58-3.94 9.826-1.694a.077.077 0 0 0 .008.01c-.45 1.307-1.88 4.09-6.171 5.594-3.93 1.378-5.447 3.57-6.032 5.025zm10.872-6.96c-1.026 1.027-2.484 2.035-4.55 2.76-4.192 1.47-5.364 3.877-5.69 5.043l.043.047c2.245 2.246 6.644 1.487 9.825-1.694 2.83-2.83 3.741-6.623 2.326-9.008a9.144 9.144 0 0 1-1.954 2.853zM11.585 9.246c4.529.397 6.979-1.549 7.927-2.555l-.004-.012c-1.121-2.97-5.442-4.092-9.65-2.504-3.707 1.399-6.09 4.432-5.84 7.166 1.133-1.085 3.417-2.458 7.567-2.095zm2.332 5.688c3.745-1.412 6.137-4.494 5.83-7.25a9.143 9.143 0 0 1-2.955 1.795c-1.358.512-3.102.83-5.283.64-4.426-.389-6.485 1.322-7.264 2.25.008.02.014.041.02.06 1.122 2.972 5.443 4.094 9.652 2.505zm13.108-6.195c2.717-3.646 2.348-6.753 1.99-8.088l-.012-.003c-3.117-.607-6.34 2.48-7.2 6.896-.758 3.89.572 7.51 3.03 8.734-.328-1.534-.296-4.199 2.192-7.54zM29.984.97c.161.85.25 2.041-.026 3.458-.277 1.425-.923 3.076-2.23 4.831-2.656 3.562-2.282 6.213-1.901 7.363l.062.014c3.117.607 6.34-2.48 7.2-6.896.766-3.93-.6-7.584-3.105-8.77z" fill="#fff"/></g></g><defs><clipPath id="b"><path fill="#fff" transform="translate(4)" d="M0 0h29.302v29.302H0z"/></clipPath><filter id="a" x="0" y="0" width="37.302" height="37.302" filterUnits="userSpaceOnUse" color-interpolation-filters="sRGB"><feFlood flood-opacity="0" result="BackgroundImageFix"/><feColorMatrix in="SourceAlpha" values="0 0 0 0 0 0 0 0 0 0 0 0 0 0 0 0 0 0 127 0" result="hardAlpha"/><feOffset dy="4"/><feGaussianBlur stdDeviation="2"/><feColorMatrix values="0 0 0 0 0 0 0 0 0 0 0 0 0 0 0 0 0 0 0.25 0"/><feBlend in2="BackgroundImageFix" result="effect1_dropShadow_4_68"/><feBlend in="SourceGraphic" in2="effect1_dropShadow_4_68" result="shape"/></filter></defs></svg>
